X:1
T:His Grace Is Sufficient for Me
T:Charles Hutchinson Gabriel, 1904
T:His Grace Is Sufficient for Me
T:Public Domain
T:Public Domain
T:Public Domain
C:Charles Hutchinson Gabriel, 1904
Z:Public Domain
%%score ( 1 2 ) ( 3 4 )
L:1/8
M:6/4
K:Ab
V:1 treble 
V:2 treble 
V:3 bass 
V:4 bass 
V:1
 [CE]2 [Ec]2 [DB]2 [CA]2 [EG]2 [DF]2 | [CE]2 [A,C]2 [DF]2 [CE]6 | %2
w: 1.~Glad- ly the will of my|Lord I o- bey;|
w: 2.~Not o- ver things of the|world will I grieve;|
w: 3.~Tho’ I may see but one|step at a time,|
w: 4.~Liv- ing, I’ll serve Him wher-|ev- er I go,|
w: 5.~When I shall stand face to|face with my King,|
 [DE]2 [Ed]2 [Ec]2 [EB]2 [EA]2 [EG]2 | [EA]2 [EA]2 [EB]2 [Ec]6 | %4
w: He is my Keep- er from|day un- to day;|
w: All that He sends I will|glad- ly re- ceive,|
w: As up the path- way to|glor- y I climb,|
w: E’en tho’ it be where the|dark wa- ters flow;|
w: Still to the word of His|prom- ise I’ll cling,|
 [Ae]2 [Af]2 [Ae]2 [Ec]2 [EB]2 [EA]2 | [FA]2 [DF]2 [FA]2 [Fd]4 [Fd]2 | c2 c2 c2 c2 B2 [_DF]2 | %7
w: He is my Guide, and He|know- eth the way, His|grace is suf- fi- cient for|
w: Sa- tis- fied just to look|up and be- lieve, His|grace is suf- fi- cient for|
w: Yet I be- lieve in the|prom- ise di- vine, His|grace is suf- fi- cient for|
w: Dy- ing, I’ll praise Him, for|well I do know, His|grace is suf- fi- cient for|
w: And with the ran- somed for-|ev- er I’ll sing— His|grace is suf- fi- cient for|
 (D2 G2 F2 E2 D2) ||"^Refrain" [CE]2 | (E2 F2 A2) (G2 F2) [Ec]2 | [Gd]2 [Gd]3 [^Fc] [Gd]4 E2 | %11
w: ||||
w: ||||
w: grace * * * *|suf-|fi- * * cient * for|grace is suf- fi- cient|
w: ||||
w: ||||
 (E2 F2 A2) (G2 F2) [Ed]2 | [Fd]2 [Ec]3 [=D=B] [Ec]4 [F_d]2 | [Ae]2 [Af]2 [Ae]2 [Ec]2 [EB]2 [EA]2 | %14
w: |||
w: |||
w: me; * * Then * why|fear, with a Sav- ior|so dear? His grace is suf-|
w: |||
w: |||
 [FA]2 [DF]2 [FA]2 [Fd]4 [Fd]2 | [Ec]2 [Ec]2 [Ec]2 [EB] [EB]3 [EB]2 | [EA]6- [EA]4 |] %17
w: |||
w: |||
w: fi- cient for me. *|||
w: |||
w: |||
V:2
 x12 | x12 | x12 | x12 | x12 | x12 | E6 =D4 x2 | B6- B4 || x2 | c6 c4 x2 | x10 E2 | d6 d4 x2 | %12
w: ||||||me. *||||||
w: ||||||me. *||||||
w: ||||||me. His|is *||me, His|for|should I|
w: ||||||me. *||||||
w: ||||||me. *||||||
 x12 | x12 | x12 | x12 | x10 |] %17
w: |||||
w: |||||
w: |||||
w: |||||
w: |||||
V:3
 [A,,A,]2 [A,,A,]2 [A,,A,]2 [A,,A,]2 [A,,A,]2 [A,,A,]2 | [A,,A,]2 [A,,E,]2 [A,,A,]2 [A,,A,]6 | %2
w: ~ ~ ~ ~ ~ ~|~ ~ ~ ~|
 [B,,G,]2 [B,,G,]2 [B,,G,]2 [E,D]2 [E,C]2 [D,B,]2 | [C,A,]2 [C,A,]2 [E,G,]2 A,6 | %4
w: ~ ~ ~ ~ ~ ~|~ ~ ~ ~|
 [A,C]2 [A,D]2 [A,C]2 [A,,A,]2 [B,,G,]2 [C,A,]2 | [D,D]2 [D,A,]2 [D,D]2 [D,A,]4 [D,A,]2 | %6
w: ~ ~ ~ ~ ~ ~|~ ~ ~ ~ ~|
 [A,,A,]6 [B,,A,]4 [B,,A,]2 | [E,G,]2 [E,B,]2 [E,A,]2 [E,G,]4 || [A,,A,]2 | %9
w: is suf- fi-|cient for me. HIs|grace|
 A,2 A,2 A,2 E,2 E,2 [A,,A,]2 | [E,B,]2 [E,B,]3 [E,=A,] [E,B,]4 [E,G,]2 | %11
w: is suf- fi- cient, suf- fi-|me, HIs grace is suf-|
 G,2 A,2 B,2 B,2 A,2 [E,G,]2 | [A,,A,]2 [A,,A,]3 [A,,A,] [A,,A,]4 [A,,A,B,]2 | %13
w: fi- cient * * * *||
 [A,C]2 [A,D]2 [A,C]2 [A,,A,]2 [B,,G,]2 [C,A,]2 | [D,D]2 [D,A,]2 [D,D]2 [D,A,]4 [D,A,]2 | %15
w: ||
 [E,A,]2 [E,A,]2 [E,A,]2 [E,D] [E,D]3 [E,D]2 | [A,,C]6- [A,,C]4 |] %17
w: ||
V:4
 x12 | x12 | x12 | x6 A,6 | x12 | x12 | x12 | x10 || x2 | A,,6 A,,4 x2 | x12 | E,6 E,4 x2 | x12 | %13
w: |||~||||||cient for||||
 x12 | x12 | x12 | x10 |] %17
w: ||||

